X: 1
T: Cortes Gardens
C: J.S.Skinner
R: strathspey
M: 4/4
L: 1/8
K: Em
B \
| "Em"E2 G>E B>E G>E | B,>E G>E "D"F<D D>F \
| "Em"E>G B>^d e>B G>E |1 "Am"A/B/c "B7"B>A "Em"G>F E :|2 "Am"A/B/c "B7"B>^d "Em"e<E E ||
F \
| "G"G2 D>G B,>G G,>G | B,>G G,>G "A7"E>A, "D7"A,>F \
| "G"G>B d>f g>d B>G | "Am"A/B/c "B7"B>^d "Em"e<E E>F |
| "G"G2 D>G B,>G G,>G | B,>G G,>G "A7"E>A, "D7"A,>F \
| "G"(3GAB "D"(3ABc "Em"Bcd "C"cde |1 "G"dcB "D"cBA "Em"BAG "B7"FE^D :|2 "G"dcB "Am"cBA "Em"GE E |]
